X:221
%%etbk:tnset id:68,pos:3,rep:3x,ant:
%%etbk:wsite http://www.thesession.org/tunes/display/228
%%etbk:pldat 2016-05-24T17:00,2015-08-18T17:26,2015-03-24T17:00,2015-02-02T19:02,2014-12-18T18:48,2014-05-21T19:25,2014-03-25T16:02,2014-02-09T13:10,2013-12-11T19:08,2013-08-27T18:09,2013-05-01T16:18
T: Humours Of Ennistymon, The
T: Coppers And Brass
Z: Piano Box Version by Martin Fleischmann
H: Created 2013-02-19 /  Last Modified 2013-02-19
M: 6/8
L: 1/8
R: jig
K: Gmaj
|: !2!B!1!B!2!B !1!G!2!B!4!d | !3!cBc !1!ABc | !2!B!2!B!2!B GBd | !3!c!1!A!3!G !2!F!1!G!4!A |
| !2!BBB !1!GBd | !3!cBc ABc | !4!ded !3!c!1!A!2!F | !4!AGF !3!G3:||
|:!5!f!1!A!5!f fed | !2!c!1!A!3!G !2!F!3!G!4!A | !1!G2!4!g gfg | !5!a!3!f!1!d d2 !4!e |
!5!f2f fed | !2!c!1!A!3!G !2!FG!4!A | !2!BBB !3!c!1!A!2!F | !4!AGF !3!G3:||
| !4!g!2!d!1!B gdB | !4!e!2!c!1!A ecA | !2!BBB !1!GBd | !3!cBc !4!d!2!e!3!f |
!4!g!2!d!1!B gdB | !4!e!2!c!1!A ecA | !2!BBB !1!GBd | !3!c!1!A!2!F !1!G3 |
!4!gdB gdB | !4!ecA ecA | !2!BBB !1!GBd | !3!cBc !1!ABc |
!2!BBB !1!GBd | !3!cBc ABc | !4!ded !3!c!1!A!2!F | !4!AGF !1!G3 |


